X:181
M:4/4
L:1/4
K:G
B | G A B/c/ d | c2 !fermata!B B/c/ | d d A B | G2 !fermata!F D | G A B B | !fermata!A3 B | G A B/c/ d | c2 !fermata!B B/c/ | d y d A y B | G2 !fermata!F !sintro!=D | G A B c | B A !fermata!G !eintro!|]
